color/svg/1FAA3.svg

<svg id="emoji" viewBox="0 0 72 72" xmlns="http://www.w3.org/2000/svg">
  <g id="color">
    <path fill="#92d3f5" d="M44.0086,60.9583H27.4408a3.857,3.857,0,0,1-3.816-3.4443L20.93,33.8124H50.7562L47.82,57.5522A3.8639,3.8639,0,0,1,44.0086,60.9583Z"/>
    <path fill="#61b2e4" d="M45.04,33.8123l-2.9366,23.74a3.8639,3.8639,0,0,1-3.811,3.4061h5.7165A3.8639,3.8639,0,0,0,47.82,57.5521l2.9365-23.74Z"/>
    <path fill="#61b2e4" d="M50.9659,35.873h-30.02A2.1718,2.1718,0,0,1,18.79,33.69v-.7919a5.4587,5.4587,0,0,1,5.418-5.4859H47.7034a5.4587,5.4587,0,0,1,5.4179,5.4859V33.69A2.1717,2.1717,0,0,1,50.9659,35.873Z"/>
    <path fill="#fff" d="M31.1779,7.8081h9.5534a1.079,1.079,0,0,1,1.08,1.08v5.1557a1.079,1.079,0,0,1-1.08,1.08H31.1779a1.079,1.079,0,0,1-1.08-1.08V8.8877A1.079,1.079,0,0,1,31.1779,7.8081Z"/>
  </g>
  <g id="line">
    <path fill="none" stroke="#000" stroke-linecap="round" stroke-linejoin="round" stroke-width="2" d="M49.1845,38.23,46.81,57.4243a2.8359,2.8359,0,0,1-2.8016,2.5036H27.4405a2.8363,2.8363,0,0,1-2.8049-2.5319L22.4567,38.23"/>
    <path fill="none" stroke="#000" stroke-linecap="round" stroke-linejoin="round" stroke-width="2" d="M50.9654,34.8426A1.1453,1.1453,0,0,0,52.1035,33.69v-.7926a4.4281,4.4281,0,0,0-4.4-4.4555H24.208a4.4282,4.4282,0,0,0-4.4,4.4555V33.69a1.1454,1.1454,0,0,0,1.1382,1.1524Z"/>
    <rect x="31.1783" y="8.888" width="9.5525" height="5.1553" transform="translate(71.9092 22.9313) rotate(180)" fill="none" stroke="#000" stroke-linecap="round" stroke-linejoin="round" stroke-width="2"/>
    <path fill="none" stroke="#000" stroke-linecap="round" stroke-linejoin="round" stroke-width="2" d="M40.7128,11.5374A20.6967,20.6967,0,0,1,56,31.7971h-1.01"/>
    <path fill="none" stroke="#000" stroke-linecap="round" stroke-linejoin="round" stroke-width="2" d="M31.178,11.5652A20.7032,20.7032,0,0,0,16,31.7971h1.1563"/>
  </g>
</svg>

<svg id="emoji" viewBox="0 0 72 72" version="1.1" xmlns="http://www.w3.org/2000/svg">
  <g id="color">
    <path fill="#92d3f5" d="m44.01 60.96h-16.57a3.857 3.857 0 0 1-3.816-3.444l-2.695-23.7h29.83l-2.936 23.74a3.864 3.864 0 0 1-3.811 3.406z"/>
    <path fill="#61b2e4" d="m45.04 33.81-2.937 23.74a3.864 3.864 0 0 1-3.811 3.406h5.716a3.864 3.864 0 0 0 3.811-3.406l2.936-23.74z"/>
    <path fill="#61b2e4" d="m50.97 35.87h-30.02a2.172 2.172 0 0 1-2.156-2.183v-0.7919a5.459 5.459 0 0 1 5.418-5.486h23.5a5.459 5.459 0 0 1 5.418 5.486v0.7919a2.172 2.172 0 0 1-2.155 2.183z"/>
    <path fill="#fff" d="m40.73 8.888v5.155h-9.552v-5.155z"/>
  </g>
  <g id="line" fill="none" stroke="#000" stroke-linecap="round" stroke-linejoin="round" stroke-width="2">
    <path d="m49.18 38.23-2.374 19.19a2.836 2.836 0 0 1-2.802 2.504h-16.57a2.836 2.836 0 0 1-2.805-2.532l-2.179-19.17"/>
    <path d="m50.97 34.84a1.145 1.145 0 0 0 1.138-1.153v-0.7926a4.428 4.428 0 0 0-4.4-4.456h-23.5a4.428 4.428 0 0 0-4.4 4.456v0.7926a1.145 1.145 0 0 0 1.138 1.152z"/>
    <rect x="31.18" y="8.888" width="9.552" height="5.155" transform="translate(71.91 22.93) rotate(180)"/>
    <path d="m40.71 11.54a20.7 20.7 0 0 1 15.29 20.26h-1.01"/>
    <path d="m31.18 11.57a20.7 20.7 0 0 0-15.18 20.23h1.156"/>
  </g>
</svg>
